Arcticons/scalable/apps/calibrecompanion.svg

<svg viewBox="0 0 48 48" xmlns="http://www.w3.org/2000/svg">
 <defs>
  <style>.a{fill:none;stroke:#fff;stroke-linecap:round;stroke-linejoin:round;}</style>
 </defs>
 <path class="a" d="m8.4 6.5v35a2 2 0 0 0 2 2h2.33v-39h-2.33a2 2 0 0 0-2 2z"/>
 <path class="a" d="m12.7311 4.5v39h24.87a2 2 0 0 0 2-2v-35a2 2 0 0 0-2-2z"/>
 <path class="a" d="m22.3961 27.2011a1.2235 1.2235 0 1 1 1.2239-1.2235 1.2234 1.2234 0 0 1-1.2239 1.2235z"/>
 <path class="a" d="m29.5168 27.2011a1.2235 1.2235 0 1 1 1.2232-1.2235 1.2235 1.2235 0 0 1-1.2232 1.2235z"/>
 <path class="a" d="m25.95 19.6688a8.7213 8.7213 0 0 1 8.7209 8.7212 1.2449 1.2449 0 0 1-1.2449 1.245h-14.9529a1.2449 1.2449 0 0 1-1.2449-1.245 8.7213 8.7213 0 0 1 8.7218-8.7212z"/>
 <line class="a" x1="18.4184" x2="20.8962" y1="18.365" y2="21.2815"/>
 <line class="a" x1="33.4807" x2="31.003" y1="18.365" y2="21.2815"/>
</svg>

<svg xmlns="http://www.w3.org/2000/svg" viewBox="0 0 48 48"><defs><style>.a{fill:none;stroke:#fff;stroke-linecap:round;stroke-linejoin:round;}</style></defs><path class="a" d="M8.4,6.5v35a2,2,0,0,0,2,2h2.33V4.5H10.4A2,2,0,0,0,8.4,6.5Z"/><path class="a" d="M12.7311,4.5v39h24.87a2,2,0,0,0,2-2V6.5a2,2,0,0,0-2-2Z"/><path class="a" d="M22.3961,27.2011A1.2235,1.2235,0,1,1,23.62,25.9776,1.2234,1.2234,0,0,1,22.3961,27.2011Z"/><path class="a" d="M29.5168,27.2011A1.2235,1.2235,0,1,1,30.74,25.9776,1.2235,1.2235,0,0,1,29.5168,27.2011Z"/><path class="a" d="M25.95,19.6688h0A8.7213,8.7213,0,0,1,34.6709,28.39v0A1.2449,1.2449,0,0,1,33.426,29.635H18.4731A1.2449,1.2449,0,0,1,17.2282,28.39v0A8.7213,8.7213,0,0,1,25.95,19.6688Z"/><line class="a" x1="18.4184" y1="18.365" x2="20.8962" y2="21.2815"/><line class="a" x1="33.4807" y1="18.365" x2="31.003" y2="21.2815"/></svg>
